!!!COM:	la Rue, Pierre de
!!!CDT:	~1452///-1518/11/20
!!!OPR:	Missa O salutaris hostia
!!!ONM:	1
!!!OTL:	Kyrie
!!!AGN:	Mass; Kyrie
!!!SCT:	Rue1022a
!!!SCA:	Rue1022a
!!!voices-OPR:	4
!!!voices:	4
**kern	**kern	**kern	**kern
*Ivox	*Ivox	*Ivox	*Ivox
*I"Bassus	*I"Tenor	*I"Contra	*I"Discantus
*I'B	*I'T	*I'C	*I'D
*staff4	*staff3	*staff2	*staff1
*>[A,B,C]	*>[A,B,C]	*>[A,B,C]	*>[A,B,C]
*>A	*>A	*>A	*>A
*clefF4	*clefGv2	*clefGv2	*clefG2
*k[b-]	*k[b-]	*k[b-]	*k[b-]
*M2/1	*M2/1	*M2/1	*M2/1
*met(C2)	*met(C2)	*met(C2)	*met(C2)
!!section: Kyrie I
!!!OMD: Kyrie I
=1-	=1-	=1-	=1-
!	!	!	!LO:TX:X=-40:Z=8:t=4-ex-1 canon at the lower 5th/8ve/12th (2/10/12 breves)
0r	0r	0r	0g
=2.	=2.	=2.	=2.
0r	0r	0r	0g
=3	=3	=3	=3
0r	0r	0c	1c
.	.	.	1c
=4.	=4.	=4.	=4.
0r	0r	0c	2e/
.	.	.	2f/
.	.	.	1g
=5	=5	=5	=5
0r	0r	1F	1a
.	.	1F	2a/
.	.	.	[2cc\
=6.	=6.	=6.	=6.
0r	0r	2A/	2cc\]
.	.	2B-\	4b-\
.	.	.	4a/
.	.	1c	1g
=7	=7	=7	=7
0r	0r	1d	1f
.	.	2d\	2.f/
.	.	[2f\	.
.	.	.	4g/
=8.	=8.	=8.	=8.
0r	0r	2f\]	2a/
.	.	4e\	2b-\
.	.	4d\	.
.	.	1c	1cc
=9	=9	=9	=9
0r	0r	1B-	1.dd
.	.	2.B-\	.
.	.	.	4cc\
.	.	4c\	4b-\
=10.	=10.	=10.	=10.
0r	0r	2d\	4cc\
.	.	.	4b-\
.	.	2e\	4a/
.	.	.	4g/
.	.	1f	1a
=11	=11	=11	=11
0r	0G	1.g	2g/
.	.	.	4b-\
.	.	.	4cc\
.	.	.	4dd\
.	.	.	4ee-i\
.	.	4f\	2dd\
.	.	4e\	.
=12.	=12.	=12.	=12.
0r	0G	4f\	2dd\
.	.	4e\	.
.	.	4d\	2.cc\
.	.	4c\	.
.	.	1d	.
.	.	.	4bni\
.	.	.	2bni\
=13	=13	=13	=13
0C	1C	2c\	0cc
.	.	4e\	.
.	.	4f\	.
.	1C	4g\	.
.	.	4a\	.
.	.	2g\	.
=14.	=14.	=14.	=14.
0C	2E/	2g\	0r
.	2F/	2.f\	.
.	1G	.	.
.	.	4e\	.
.	.	2e\	.
=15	=15	=15	=15
1FF	1A	0f	1cc
1FF	2A/	.	2cc\
.	[2c\	.	[2a/
=16.	=16.	=16.	=16.
2AA/	2c\]	0r	2a/]
2BB-/	4B-\	.	4g/
.	4A/	.	4f/
1C	1G	.	1e
=17	=17	=17	=17
1D	1F	1f	1f
2D\	2.F/	2f\	[1a
[2F\	.	[2d\	.
.	4G/	.	.
=18.	=18.	=18.	=18.
2F\]	2A/	2d\]	1a]
4E\	2B-\	4c\	.
4D\	.	4B-\	.
1C	1c	1A	1a
=19	=19	=19	=19
1BB-	1.d	1B-	0d
2.BB-/	.	[1d	.
.	4c\	.	.
4C/	4B-\	.	.
=20.	=20.	=20.	=20.
2D\	4c\	1d]	0r
.	4B-\	.	.
2E\	4A/	.	.
.	4G/	.	.
1F	1A	1d	.
=21	=21	=21	=21
1.G	2G/	0G	1d
.	4B-\	.	.
.	4c\	.	.
.	4d\	.	[1g
.	4e-i\	.	.
4F\	2d\	.	.
4E\	.	.	.
=22.	=22.	=22.	=22.
4F\	2d\	0r	2g/]
4E\	.	.	.
4D\	2.c\	.	4f/
4C/	.	.	4e/
1D	.	.	1f
.	4Bni\	.	.
.	2Bni\	.	.
=23	=23	=23	=23
0Cl	0cl	0Gl	0el
!!LO:LB:i:g=z
=24||	=24||	=24||	=24||
*>B	*>B	*>B	*>B
*clefF4	*clefGv2	*clefGv2	*clefG2
*k[b-]	*k[b-]	*k[b-]	*k[b-]
*M2/1	*M2/1	*M2/1	*M2/1
*met(C2)	*met(C2)	*met(C2)	*met(C2)
!!section: Christe
!!!OMD: Christe
!	!LO:TX:X=-40:Z=8:t=4-ex-1 canon at the lower 5th/upper 8ve/upper 4th (2/8/10 breves)	!	!
0r	0c	0r	0r
=25.	=25.	=25.	=25.
0r	1A	0r	0r
.	1B-	.	.
=26	=26	=26	=26
0F	0A	0r	0r
=27.	=27.	=27.	=27.
1D	2r	0r	0r
.	1d	.	.
1E	.	.	.
.	2c#i\	.	.
=28	=28	=28	=28
0D	1d	0r	0r
.	2d\	.	.
.	[2B-\	.	.
=29.	=29.	=29.	=29.
2r	2B-\]	0r	0r
1G	4A/	.	.
.	4G/	.	.
.	1A	.	.
2F#i\	.	.	.
=30	=30	=30	=30
1G	0G	0r	0r
2G\	.	.	.
[2E\	.	.	.
=31.	=31.	=31.	=31.
2E\]	2c\	0r	0r
4D\	1c	.	.
4C/	.	.	.
1D	.	.	.
.	2Bni\	.	.
=32	=32	=32	=32
0C	1c	0r	0cc
.	2c\	.	.
.	[2A/	.	.
=33.	=33.	=33.	=33.
2F\	2A/]	0r	1a
1F	2F/	.	.
.	1G	.	1b-
2E\	.	.	.
=34	=34	=34	=34
1F	0F	0f	0a
2F\	.	.	.
[2D\	.	.	.
=35.	=35.	=35.	=35.
2D\]	0r	1d	2r
2BB-/	.	.	1dd
1C	.	1e-i	.
.	.	.	2cc\
=36	=36	=36	=36
0BB-	0r	0d	1dd
.	.	.	2dd\
.	.	.	[2b-\
=37.	=37.	=37.	=37.
0r	0r	2r	2b-\]
.	.	1g	4a/
.	.	.	4g/
.	.	.	1a
.	.	2f#i\	.
=38	=38	=38	=38
0r	0r	1g	0g
.	.	2g\	.
.	.	[2e\	.
=39.	=39.	=39.	=39.
0r	1r	2e\]	2cc\
.	.	4d\	1cc
.	.	4c\	.
.	1G	1d	.
.	.	.	2bni\
=40	=40	=40	=40
0r	1A	0c	1cc
.	1c	.	2cc\
.	.	.	[2a/
=41.	=41.	=41.	=41.
1r	2.A/	2f\	2a/]
.	.	1f	2f/
.	4B-\	.	.
1C	1G	.	1g
.	.	2e\	.
=42	=42	=42	=42
1D	1r	1f	0f
1F	1A	2f\	.
.	.	[2d\	.
=43.	=43.	=43.	=43.
2.D\	2F/	2d\]	0r
.	2G/	2B-\	.
4E\	.	.	.
1C	1E	1c	.
=44	=44	=44	=44
1r	2D/	0B-	0r
.	2G/	.	.
1D	2F/	.	.
.	[2B-\	.	.
=45.	=45.	=45.	=45.
2BB-/	4B-\]	0r	0r
.	4A/	.	.
2C/	1G	.	.
1AA	.	.	.
.	2F#i/	.	.
=46	=46	=46	=46
2GG/	2G/	0r	0r
2C/	2A/	.	.
2BB-/	2G/	.	.
[2E-i\	[2c\	.	.
=47.	=47.	=47.	=47.
4E-\]	4c\]	0r	1r
4D\	4B-\	.	.
1C	2c\	.	.
.	1G	.	1g
2BB-/	.	.	.
=48	=48	=48	=48
2C/	2r	0r	1a
2D\	2F/	.	.
2C/	2A/	.	1cc
[2F\	[2A/	.	.
=49.	=49.	=49.	=49.
4F\]	2A/]	1r	2.a/
4E\	.	.	.
2F\	2F/	.	.
.	.	.	4b-\
1C	1G	1c	1g
=50	=50	=50	=50
2r	0F	1d	1r
2BB-/	.	.	.
2D\	.	1f	1a
[2D\	.	.	.
=51.	=51.	=51.	=51.
2D\]	2.B-\	2.d\	2f/
2BB-/	.	.	2g/
.	4G/	4e\	.
1C	1A	1c	1e
=52	=52	=52	=52
0BB-	1B-	1r	2d/
.	.	.	2g/
.	2B-\	1d	2f/
.	[2G/	.	[2b-\
=53.	=53.	=53.	=53.
2.E-i\	4G/]	2B-\	4b-\]
.	4F/	.	4a/
.	2G/	2c\	1g
4C/	.	.	.
1D	1D	1A	.
.	.	.	2f#i/
=54	=54	=54	=54
1E-i	1r	[0Gl	[0gl
2E-i\	1C	.	.
[2C/	.	.	.
=55.	=55.	=55.	=55.
4C/]	1.E-i	0G_	0g_
4BB-/	.	.	.
2C/	.	.	.
[1GGl	.	.	.
.	2D/	.	.
=56	=56	=56	=56
0GG]	0Dl	0G]	0g]
!!LO:LB:i:g=z
=57||	=57||	=57||	=57||
*>C	*>C	*>C	*>C
*clefF4	*clefGv2	*clefGv2	*clefG2
*k[b-]	*k[b-]	*k[b-]	*k[b-]
*M3/1	*M3/1	*M3/1	*M3/1
*met(O|)	*met(O|)	*met(O|)	*met(O|)
!!section: Kyrie II
!!!OMD: Kyrie II
!	!	!	!LO:TX:X=-40:Z=8:t=4-ex-1 canon at the lower 5th/8ve/12th (1/4/5 breves)
0.r	0.r	0.r	0g
.	.	.	2.a/
.	.	.	4b-\
=58	=58	=58	=58
0.r	0.r	0c	2cc\
.	.	.	1cc
.	.	.	4b-\
.	.	.	4a/
.	.	2.d\	1b-
.	.	4e\	.
=59	=59	=59	=59
0.r	0.r	2f\	0a
.	.	1f	.
.	.	4e\	.
.	.	4d\	.
.	.	1e	2g/
.	.	.	[2b-\
=60	=60	=60	=60
0.r	0.r	0d	2b-\]
.	.	.	4a/
.	.	.	4g/
.	.	.	2.f/
.	.	.	4e/
.	.	2c\	1g
.	.	[2e\	.
=61	=61	=61	=61
0.r	0G	2e\]	2g/
.	.	4d\	4f/
.	.	4c\	4e/
.	.	2.Bni\	1d
.	.	4A/	.
.	2.A/	1c	1c
.	4B-\	.	.
=62	=62	=62	=62
0C	2c\	2c\	0.r
.	1c	4B-\	.
.	.	4A/	.
.	.	1G	.
.	4B-\	.	.
.	4A/	.	.
2.D\	1B-	1F	.
4E\	.	.	.
=63	=63	=63	=63
2F\	0A	0.r	0.r
1F	.	.	.
4E\	.	.	.
4D\	.	.	.
1E	2G/	.	.
.	[2B-\	.	.
=64	=64	=64	=64
0D	2B-\]	0.r	0.r
.	4A/	.	.
.	4G/	.	.
.	2.F/	.	.
.	4E/	.	.
2C/	1G	.	.
[2E-i\	.	.	.
=65	=65	=65	=65
2E-\]	2G/	0.r	1r
4D\	4F/	.	.
4C/	4E/	.	.
2.BB-/	1D	.	1f
4AA/	.	.	.
1C	1C	.	1e
=66	=66	=66	=66
2C/	0.r	1r	1.g
4BB-/	.	.	.
4AA/	.	.	.
1GG	.	1B-	.
.	.	.	2g/
1FF	.	1A	[1a
=67	=67	=67	=67
0.r	0.r	1.c	2a/]
.	.	.	4g/
.	.	.	4f/
.	.	.	1e
.	.	2c\	.
.	.	[1d	1d
=68	=68	=68	=68
0.r	0.r	2d\]	2r
.	.	4c\	2.a/
.	.	4B-\	.
.	.	1A	.
.	.	.	4b-\
.	.	.	2cc\
.	.	1G	2dd\
.	.	.	[2dd\
=69	=69	=69	=69
0.r	1r	2r	2dd\]
.	.	2.d\	4cc\
.	.	.	4b-\
.	1F	.	1a
.	.	4e\	.
.	.	2f\	.
.	1E	2g\	1g
.	.	[2g\	.
=70	=70	=70	=70
1r	1.G	2g\]	1r
.	.	4f\	.
.	.	4e\	.
1BB-	.	1d	1b-
.	2G/	.	.
1AA	[1A	1c	[1cc
=71	=71	=71	=71
1.C	2A/]	1r	2cc\]
.	4G/	.	4b-\
.	4F/	.	4a/
.	1E	1e	1g
2C/	.	.	.
[1D	1D	[1f	2.f/
.	.	.	4g/
=72	=72	=72	=72
2D\]	2r	2f\]	0a
4C/	2.A/	4e\	.
4BB-/	.	4d\	.
1AA	.	1c	.
.	4B-\	.	.
.	2c\	.	.
1GG	2d\	2.B-\	2d/
.	[2d\	.	[2b-\
.	.	4c\	.
=73	=73	=73	=73
2r	2d\]	0d	2b-\]
2.D\	4c\	.	4a/
.	4B-\	.	4g/
.	1A	.	1a
4E\	.	.	.
2F\	.	.	.
2G\	1G	2G/	1r
[2G\	.	[2e-i\	.
=74	=74	=74	=74
2G\]	1r	2e-\]	1g
4F\	.	4d\	.
4E\	.	4c\	.
1D	1B-	1d	1f
1C	[1c	1r	1e
=75	=75	=75	=75
1r	2c\]	1c	0g
.	4B-\	.	.
.	4A/	.	.
1E-i	1G	1B-	.
[1F	2.F/	1A	[1a
.	4G/	.	.
=76	=76	=76	=76
2F\]	0A	0c	2a/]
4E-i\	.	.	4g/
4D\	.	.	4f/
1C	.	.	1e
2.BB-/	2D/	[1d	2.f/
.	[2B-\	.	.
4C/	.	.	4e/
=77	=77	=77	=77
0D	2B-\]	2d\]	2f/
.	4A/	4c\	2.g/
.	4G/	4B-\	.
.	1A	1A	.
.	.	.	4f#i/
.	.	.	2f#i/
[1GGl	1r	[1B-l	[1gl
=78	=78	=78	=78
0.GG]	0.Gl	0.B-]	0.g]
==	==	==	==
*-	*-	*-	*-
!!!RDF**kern: l=long note in original notation
!!!RDF**kern: i=editorial accidental
!!!ENC:	Chris Gage 03-28-2013
!!!END:	2013/07/28/
!!!EED:	Jesse Rodin
!!!EEV:	2013/08/02/
!!!ONB:	Translated from MusicXML and edited on 2013/08/02/ by Craig Sapp
!!muse2ps: T^@{OPR}^u^@{ONM}{. }@{OTL}^C^@{COM}^i2I150v85,85,85,150Q16c120
